icons/24x24_gallery_outline.svg

<svg xmlns="http://www.w3.org/2000/svg" width="24" height="24" viewBox="0 0 24 24">
  <path fill-rule="evenodd" d="M8,5 L19,5 C20.6568542,5 22,6.34314575 22,8 L22,18 C22,19.6568542 20.6568542,21 19,21 L8,21 C6.34314575,21 5,19.6568542 5,18 L5,8 C5,6.34314575 6.34314575,5 8,5 Z M8,7 C7.44771525,7 7,7.44771525 7,8 L7,18 C7,18.5522847 7.44771525,19 8,19 L19,19 C19.5522847,19 20,18.5522847 20,18 L20,8 C20,7.44771525 19.5522847,7 19,7 L8,7 Z M12.5,14.4653157 L15,10 L19,17 L8,17 L11,13 L12.5,14.4653157 Z M10.5,12 C9.672,12 9,11.328 9,10.5 C9,9.671 9.672,9 10.5,9 C11.328,9 12,9.671 12,10.5 C12,11.328 11.328,12 10.5,12 Z M17,3 C17,3.55228475 16.5522847,4 16,4 L6.5,4 C5.11928813,4 4,5.11928813 4,6.5 L4,15 C4,15.5522847 3.55228475,16 3,16 C2.44771525,16 2,15.5522847 2,15 L2,6 C2,3.790861 3.790861,2 6,2 L16,2 C16.5522847,2 17,2.44771525 17,3 Z"/>
</svg>

<svg width="24" height="24" fill="none" xmlns="http://www.w3.org/2000/svg"><path fill-rule="evenodd" clip-rule="evenodd" d="M8 5h11a3 3 0 0 1 3 3v10a3 3 0 0 1-3 3H8a3 3 0 0 1-3-3V8a3 3 0 0 1 3-3Zm0 2a1 1 0 0 0-1 1v10a1 1 0 0 0 1 1h11a1 1 0 0 0 1-1V8a1 1 0 0 0-1-1H8Zm4.5 7.465L15 10l4 7H8l3-4 1.5 1.465ZM10.5 12a1.5 1.5 0 1 1 .001-3.001A1.5 1.5 0 0 1 10.5 12ZM17 3a1 1 0 0 1-1 1H6.5A2.5 2.5 0 0 0 4 6.5V15a1 1 0 1 1-2 0V6a4 4 0 0 1 4-4h10a1 1 0 0 1 1 1Z" fill="#000"/></svg>
